X:1
T:Reel d'Alison
C:Gilles Vigneault
Z:robin.beech@mcgill.ca
R:reel
M:2/4
L:1/8
K:D
AAA | FA AA | Dd dd | Bd dd | A2 AA | GB AG | FA GF |
ED CB, | A,A AA | FA AA | Dd dd | Bd dd | A2 dd |
Bc de | fd cB |1 Ag fe | d :|2 Ag fe | d2 de ||
fF FF | Fd dd | ce dc | B2 cd | eE EE | EF ^GA |
B^G AB | c2de | fF FF | Fd dd | ce dc | B2 BB |
AB BB | ^GB BB | =GB AG | F2- | F2 || zAAA |]
